nssokada/EffortForagingUnderThreat/results/stats/joint_choice_vigor_params.csv
subj,k_joint,beta_joint,alpha_joint,delta_joint
1,7.2677445,7.2523437,0.1861602,0.2724853
2,14.81786,6.417903,-0.0817131,0.27186617
3,6.8648977,7.123366,-0.10351252,0.2720656
4,5.1838765,6.498223,0.039919678,0.27286708
5,2.9256876,6.2914896,-0.26424938,0.2722339
6,7.2116756,6.2088037,0.24026737,0.27260798
7,6.2582746,6.8779764,-0.012355944,0.27226546
8,11.6860485,6.6641026,0.04372753,0.27215844
9,5.6403213,7.4352913,-0.1652671,0.27182627
10,6.3894663,6.634248,0.013036451,0.272772
11,6.1152706,7.416883,-0.031630676,0.27233478
12,10.130789,7.291728,0.11266331,0.2717938
13,4.160936,7.4938626,-0.079784304,0.27275988
14,4.409788,6.515028,0.23743042,0.27323914
15,10.635726,5.861486,0.32147962,0.2722985
16,16.68962,7.4606843,-0.07106618,0.27172008
17,7.104149,6.0090365,0.038304176,0.27242163
18,4.809937,6.2729096,0.0022424478,0.27237725
19,6.3662815,6.6445804,-0.06437371,0.273105
20,5.9726806,6.024886,0.060487185,0.27307782
21,5.363143,6.5566173,0.113377966,0.27271193
22,4.5364933,7.1349087,0.03450371,0.27283472
23,4.649529,8.241384,0.06962584,0.27294064
24,2.298536,6.90715,-0.08346792,0.2724191
25,6.4949174,6.3874063,0.24087387,0.27287096
26,8.461641,7.0121765,0.35007218,0.27223048
27,7.7532635,6.615601,-0.0404089,0.27242467
28,6.250288,7.506086,0.07823383,0.2729597
29,4.645555,6.632384,0.09801476,0.2721677
30,5.3754163,7.0761833,-0.04854692,0.27262205
31,3.752659,7.355295,-0.16035193,0.27221373
32,13.59879,6.2235703,-0.013190543,0.27206072
33,4.068445,7.061891,-0.021317903,0.27283975
34,8.488987,8.030369,-0.05024208,0.27217686
35,23.389116,6.7065444,0.08618811,0.27166295
36,5.727448,7.4733796,0.040708613,0.27282134
37,15.566571,7.2776203,0.1621377,0.27174214
38,6.102728,6.380359,0.024742976,0.27279928
39,1.9317218,7.4677334,-0.09210631,0.27165964
40,4.119249,6.1447587,-0.10160321,0.27245075
41,11.236614,7.217858,-0.0010211831,0.2713701
42,4.820216,6.3835897,-0.010316537,0.27205297
43,15.615486,8.105792,-0.010437447,0.2713574
44,7.660118,6.5326557,-0.04976026,0.27235293
45,9.535727,6.413018,0.053535398,0.2718738
46,7.651634,7.4086385,0.11366176,0.27301556
47,4.4694476,7.3697066,-0.065638214,0.2720016
48,8.229234,7.091574,0.030963492,0.27252364
49,6.038542,6.5536485,0.111734495,0.27327397
50,7.8631415,6.8040338,0.13656643,0.27243868
51,2.9413695,7.1585207,0.17529689,0.27273062
52,10.070663,7.365104,-0.075635724,0.27199775
53,9.43724,6.3135095,0.028330423,0.27264443
54,5.179555,6.958069,-0.06147853,0.2727507
55,11.774169,7.1501803,-0.038627498,0.2720544
56,6.797878,7.2937174,0.053477284,0.27252954
57,6.6779656,6.8350453,-0.0905059,0.27177364
58,6.6065364,5.960349,-0.15584323,0.2723482
59,7.4691825,6.7317915,-0.026343334,0.27207518
60,3.9000242,6.815721,-0.122055225,0.27279466
61,7.3418045,8.19153,0.0080487365,0.2722191
62,2.0510921,6.9222207,-0.24778228,0.2723236
63,4.999449,6.678237,0.58441055,0.2748106
64,9.841074,6.76798,-0.04057893,0.27193195
65,9.139485,6.6911917,0.07353315,0.27201506
66,1.8511229,7.1557903,-0.2138269,0.27207768
67,3.340889,5.816742,-0.20028558,0.27228042
68,4.369776,7.6869006,-0.14851409,0.27214417
69,3.5641592,7.5932765,-0.024400022,0.27243623
70,11.43824,7.538772,-0.0068689818,0.27188066
71,6.010467,6.5232472,-0.14415558,0.27192977
72,23.739872,7.2831774,0.34563458,0.2720081
73,7.7072926,6.5057726,0.06521261,0.27276486
74,15.564797,5.931141,-0.18913072,0.27197573
75,7.049358,7.020198,-0.08471435,0.27276224
76,5.197573,6.890893,-0.12580585,0.2714746
77,18.085903,7.6559772,0.49581078,0.2718902
78,5.9112506,6.181824,0.09477849,0.27280003
79,2.1344004,7.2212067,0.07797143,0.27215803
80,9.585157,7.289357,0.13658608,0.27241716
81,5.0362153,6.618877,-0.0732481,0.27282256
82,12.088819,7.143242,-0.09247368,0.27210042
83,1.1791462,6.5078225,-0.27367762,0.27185664
84,7.1737437,6.650656,-0.08990422,0.2724664
85,7.409144,6.612562,-0.037234023,0.27227482
86,2.7978566,6.1141124,-0.03587985,0.27239165
87,4.322557,6.4456377,0.025620233,0.2727134
88,8.564726,6.732601,0.14246745,0.2723458
89,10.305403,7.7889624,0.07716569,0.27225384
90,3.182313,6.792767,0.02654102,0.27232
91,1.4371332,6.528887,0.056260098,0.27186015
92,3.563599,7.073421,-0.046849046,0.27293393
93,3.5592415,6.265921,-0.03531577,0.2723442
94,7.6371284,7.54707,0.045293935,0.2727007
95,7.081745,7.428866,-0.0035941713,0.2727273
96,2.2484252,7.0828156,-0.2170178,0.2721722
97,2.4107656,6.959659,-0.2612752,0.27252805
98,29.823185,6.6874447,0.0510496,0.2721576
99,8.140238,6.5600023,-0.028591253,0.27196482
100,4.622464,7.7307034,-0.08700034,0.272918
101,1.8791877,7.329757,0.2643609,0.27243346
102,6.314856,7.591231,-0.016664902,0.27297825
103,3.360212,6.764416,-0.116687365,0.27249905
104,10.128053,7.17068,0.09745023,0.27216583
105,6.375562,6.6018047,0.04929736,0.27306044
106,3.7194266,6.6993074,-0.14789797,0.27246773
107,3.819959,6.460413,0.11925758,0.27252346
108,7.6071763,6.596272,0.08488601,0.27277768
109,7.4503765,6.414249,0.10670164,0.27174267
110,20.662792,7.0255375,0.10344789,0.271691
111,7.6452594,7.022146,-0.11263054,0.2723892
112,6.703488,7.460894,0.13686828,0.27245015
113,5.4620256,6.4700527,-0.1165538,0.27220276
114,6.927731,6.565956,0.019944783,0.2723907
115,5.7496233,8.081323,0.0071118465,0.27248737
116,6.4317393,6.854452,0.07704549,0.27239946
117,10.747727,7.3087244,0.09531142,0.27187312
118,8.324202,7.088247,-0.14103033,0.27198297
119,12.280566,6.1926217,-0.10314933,0.2725921
120,5.813397,7.288388,0.028313965,0.27275395
121,8.277992,8.2989235,-0.043086663,0.27258614
122,4.0208435,6.1523175,0.06937334,0.2727393
123,6.1752095,7.148694,0.06503429,0.27177098
124,29.399626,6.675215,0.21292001,0.27172408
125,6.7462573,7.189034,-0.04548481,0.272538
126,7.0022697,6.2463007,0.04000909,0.27294552
127,8.041792,6.442843,-0.017426196,0.27246544
128,7.882248,6.813621,0.009159724,0.2727243
129,6.247308,7.339544,0.019953169,0.27282384
130,1.7547028,7.5553336,-0.08505195,0.27243567
131,4.043775,7.5949874,-0.019326204,0.27262616
132,4.2874656,5.9805355,-0.15053467,0.27230576
133,4.0715113,6.3063188,-0.22071546,0.27254954
134,18.35869,6.82301,-0.18399175,0.27154565
135,4.6228447,6.778885,0.015237006,0.27265912
136,4.3435464,8.3728,0.031894747,0.27258947
137,4.097694,6.686379,0.05169298,0.27288714
138,5.672515,6.3702664,-0.06844757,0.27183035
139,11.827229,6.5036554,0.09283466,0.27166703
140,5.4206147,7.2886214,-0.09063694,0.2722591
141,10.56873,6.95007,0.20039208,0.27184296
142,5.5400734,6.373675,-0.061350264,0.2728933
143,6.808881,6.6477895,0.1752983,0.27218148
144,5.4756236,6.2636847,0.01748703,0.27239582
145,1.7746207,7.4080625,-0.19653855,0.2718634
146,16.637812,7.7307587,0.066005506,0.27217904
147,7.3555984,6.994723,-0.06846113,0.27195308
148,6.5374546,6.7558107,-0.09438225,0.2724824
149,5.1820726,6.0601954,-0.01397335,0.2729963
150,2.4875422,6.809197,-0.1354487,0.27229717
151,4.9418,6.7360716,-0.073809,0.2725769
152,7.3373694,7.031057,0.5903926,0.27335224
153,20.544579,6.723461,0.12997891,0.2718816
154,7.1463575,6.3216777,0.305371,0.2732871
155,4.391804,6.2944603,0.0022587972,0.27310044
156,6.872281,7.528261,0.12966956,0.27255493
157,4.892141,6.849388,0.05370884,0.27278322
158,2.4973092,6.9305367,0.29282638,0.272301
159,6.8878574,6.4159513,-0.038388412,0.27218023
160,5.3007307,6.7729206,-0.15841384,0.27198792
161,5.4579577,6.875901,-0.02503923,0.27247453
162,2.750179,7.060094,-0.2587615,0.2718009
163,9.612469,6.179239,0.03162268,0.2722505
164,5.303374,7.086793,-0.026425753,0.2725485
165,3.4816532,6.731036,0.114397384,0.2732122
166,9.500124,7.048431,0.20314175,0.2720863
167,7.318775,6.065011,0.015595737,0.27285606
168,5.563601,8.079104,-0.05075104,0.27213028
169,4.1090107,6.574414,-0.22141935,0.2721033
170,7.2914457,6.3353295,-0.1728301,0.2717889
171,2.6084266,6.1912103,-0.10824407,0.2722291
172,6.154769,7.24897,0.0014189463,0.27290595
173,5.16539,7.345214,0.07836494,0.27312303
174,4.4306407,6.5819488,-0.0624922,0.2728236
175,7.853371,7.6752205,-0.13167214,0.27224678
176,3.8750727,6.893944,-0.1038017,0.27196255
177,3.4001815,7.205741,-0.055421725,0.27250153
178,2.8785574,6.869516,-0.2370323,0.27173144
179,6.537557,6.201214,-0.22863214,0.27125672
180,3.3940203,6.9826026,-0.13969634,0.27238643
181,4.69553,7.0174828,-0.09550948,0.272446
182,7.3420286,7.399796,0.030293092,0.27241117
183,5.3611627,6.99827,0.1036748,0.2726917
184,20.444786,6.2797265,0.089793906,0.27185985
185,5.2700357,6.441535,-0.24794184,0.27277127
186,11.314629,6.7762413,-0.15893537,0.27183467
187,7.2018456,6.914869,-0.05648219,0.2721234
188,20.303131,6.361135,0.10586768,0.27191406
189,11.770473,6.8876796,0.18758455,0.27201813
190,4.2044396,6.8213053,-0.18350042,0.2727019
191,8.312496,7.106024,0.0006712843,0.27221984
192,5.301654,6.2773857,-0.1725924,0.27198482
193,5.3569756,6.522088,-0.295661,0.27199197
194,5.196983,7.5279365,-0.060177967,0.27182227
195,6.1950502,7.4008493,-0.026163733,0.27224094
196,3.9679663,6.9371257,-0.06560052,0.27262583
197,1.983702,6.5064845,-0.28084666,0.271994
198,4.422293,6.781726,0.16440673,0.272583
199,10.54578,6.825928,0.089306444,0.27210644
200,3.3902192,7.0770817,0.45258316,0.27213144
201,4.394589,6.5235896,-0.1980439,0.27223843
202,5.7850943,6.789855,-0.02136628,0.27214456
203,8.289271,6.3559566,0.08160966,0.27212805
204,4.04934,7.0333037,0.013120052,0.27312437
205,4.9201856,7.113691,0.23284547,0.2730251
206,20.727291,7.5461,-0.24952452,0.27124873
207,10.817739,7.188975,0.13167822,0.27212632
208,3.3977666,6.64226,0.09143802,0.27220446
209,6.5764737,6.559964,-0.020492535,0.271802
210,4.862823,7.6969886,-0.31182507,0.27143306
211,4.045805,6.670422,-0.21180157,0.27281737
212,2.615832,7.7723246,-0.2734564,0.27261868
213,7.2741437,6.051616,-0.057790224,0.272378
214,3.0441773,6.3425508,0.073298216,0.27268115
215,8.71779,5.715898,0.07669434,0.27242717
216,7.9480815,7.583901,0.2649353,0.27257764
217,4.5481052,6.214727,0.16257165,0.27264753
218,3.1573749,7.200139,-0.10135381,0.27279252
219,6.505995,7.6305146,-0.103198566,0.27273875
220,7.026375,7.733325,-0.13724115,0.27247527
221,6.6359153,7.138798,-0.0033054827,0.27257755
222,8.0115385,6.519899,0.07334015,0.27259624
223,3.5209627,6.056453,0.35568723,0.27244148
224,1.9354342,6.7230787,-0.16245267,0.2718069
225,3.3999732,6.893797,-0.00671406,0.27255198
226,20.551725,6.7072606,-0.013420275,0.2719472
227,4.6780806,6.600602,-0.02719675,0.2722403
228,6.5746565,7.164125,-0.16611977,0.2724958
229,3.2680068,6.649797,-0.07824852,0.27277496
230,7.2220736,6.1346807,0.16515718,0.2726307
231,4.0411105,6.0192275,-0.14869224,0.27276617
232,5.4858203,8.020219,-0.26468292,0.27129307
233,4.981154,6.3013906,-0.065940976,0.2725603
234,9.269698,6.6283946,0.28423554,0.2726077
235,3.687488,7.22828,-0.1456486,0.27169195
236,6.1899633,6.698772,-0.051503927,0.27239564
237,4.801507,6.675141,0.112933196,0.2724463
238,1.5918794,7.498522,-0.23275284,0.2719603
239,4.9503326,6.3567014,-0.1516146,0.2716498
240,9.306019,6.61273,-0.050126873,0.27210546
241,4.382695,6.7350464,-0.12027828,0.27249104
242,5.1184077,7.2340097,-0.081490666,0.2724436
243,8.033266,6.066889,0.007978504,0.2724253
244,3.949318,6.5872307,-0.058586426,0.2727645
245,8.79218,7.3743105,0.12231714,0.2723438
246,9.267648,6.246945,-0.12553948,0.27205744
247,5.876985,6.518191,-0.15642038,0.271814
248,4.619845,7.2201366,-0.13099003,0.27206928
249,4.000026,6.6223845,-0.1360958,0.27257636
250,4.7411118,7.2434993,-0.3483985,0.27185753
251,2.9638062,7.319507,-0.24836132,0.27224162
252,4.554171,7.264381,-0.13323626,0.27155706
253,8.089748,6.0335684,-0.099997,0.27278462
254,4.192249,7.948849,-0.23861316,0.2719195
255,2.882737,6.9102416,-0.16478188,0.27150488
256,6.4522476,7.334181,0.051917452,0.27217966
257,5.4384375,6.8955393,0.8019414,0.2723204
258,3.7718287,6.0602894,-0.15910332,0.27242783
259,11.870109,6.726341,0.050264496,0.27240396
260,6.651204,6.6005583,0.01882571,0.27259097
261,3.5759187,6.094838,-0.010782912,0.2731022
262,7.950676,6.124758,0.1311939,0.2723645
263,12.622091,6.642822,-0.0033458117,0.27220297
264,4.116341,6.4668384,-0.29516265,0.27208158
265,4.0451965,6.818024,0.05257694,0.27257496
266,4.7438245,6.8002534,-0.06343784,0.27253154
267,3.676982,6.4635134,-0.25620946,0.27190778
268,12.181094,6.6810875,0.029914077,0.27189523
269,5.642225,7.089986,0.022667851,0.27290216
270,29.492289,6.1814322,0.17440787,0.27146098
271,3.4450831,6.878068,-0.1824476,0.27191865
272,7.4005055,7.3959684,0.058035914,0.27216852
273,9.739893,6.740677,0.040653773,0.27252468
274,6.5019703,7.29322,0.005834344,0.27306327
275,11.003762,6.1106043,-0.02647283,0.27226096
276,5.7883167,6.4822965,-0.12769146,0.27193502
277,6.396075,6.0821867,-0.03503866,0.2721844
278,1.9893217,7.347888,-0.12198657,0.27220502
279,5.4119425,7.124473,-0.14123763,0.2725916
280,6.3691144,7.005274,0.028964624,0.27188554
281,6.3797865,7.1007147,0.08015785,0.27237174
282,8.909828,6.6896214,0.08290925,0.27193373
283,4.966372,6.8469534,-0.08762576,0.27258086
284,29.492435,6.831874,-0.033582218,0.2717796
285,6.022031,6.360995,-0.2046833,0.27224264
286,6.312652,6.622105,-0.1420662,0.27217022
287,8.144726,6.6656384,-0.036785718,0.2718627
288,13.593999,6.1650834,0.015653376,0.2718645
289,4.8992395,6.4961014,-0.11994226,0.27277875
290,7.524771,6.886276,-0.11094996,0.2723788
291,4.3728514,6.7720656,-0.20762621,0.272013
292,20.591738,7.187361,-0.03704152,0.27199394
293,3.9393573,7.054838,0.022780005,0.27177724
